static/fa/svgs/solid/money-bills.svg

<svg xmlns="http://www.w3.org/2000/svg" viewBox="0 0 640 512"><!--! Font Awesome Free 6.1.1 by @fontawesome - https://fontawesome.com License - https://fontawesome.com/license/free (Icons: CC BY 4.0, Fonts: SIL OFL 1.1, Code: MIT License) Copyright 2022 Fonticons, Inc.--><path d="M96 96c0-35.35 28.7-64 64-64h416c35.3 0 64 28.65 64 64v224c0 35.3-28.7 64-64 64H160c-35.3 0-64-28.7-64-64V96zm64 224h64c0-35.3-28.7-64-64-64v64zm0-224v64c35.3 0 64-28.7 64-64h-64zm416 160c-35.3 0-64 28.7-64 64h64v-64zM512 96c0 35.3 28.7 64 64 64V96h-64zm-144 32c-44.2 0-80 35.8-80 80s35.8 80 80 80 80-35.8 80-80-35.8-80-80-80zM48 360c0 39.8 32.24 72 72 72h400c13.3 0 24 10.7 24 24s-10.7 24-24 24H120C53.73 480 0 426.3 0 360V120c0-13.3 10.75-24 24-24s24 10.7 24 24v240z"/></svg>

<svg xmlns="http://www.w3.org/2000/svg" viewBox="0 0 640 512"><!--! Font Awesome Free 6.1.1 by @fontawesome - https://fontawesome.com License - https://fontawesome.com/license/free (Icons: CC BY 4.0, Fonts: SIL OFL 1.1, Code: MIT License) Copyright 2022 Fonticons, Inc. --><path d="M96 96C96 60.65 124.7 32 160 32H576C611.3 32 640 60.65 640 96V320C640 355.3 611.3 384 576 384H160C124.7 384 96 355.3 96 320V96zM160 320H224C224 284.7 195.3 256 160 256V320zM160 96V160C195.3 160 224 131.3 224 96H160zM576 256C540.7 256 512 284.7 512 320H576V256zM512 96C512 131.3 540.7 160 576 160V96H512zM368 128C323.8 128 288 163.8 288 208C288 252.2 323.8 288 368 288C412.2 288 448 252.2 448 208C448 163.8 412.2 128 368 128zM48 360C48 399.8 80.24 432 120 432H520C533.3 432 544 442.7 544 456C544 469.3 533.3 480 520 480H120C53.73 480 0 426.3 0 360V120C0 106.7 10.75 96 24 96C37.25 96 48 106.7 48 120V360z"/></svg>
